X:1
T:Have You Heard?
T:Have You Heard?
T:Samuel Alman
T:Samuel Alman, 1879
T:Public Domain Courtesy of the Cyber Hymnal™
C:Samuel Alman
Z:Public Domain
Z:Courtesy of the Cyber Hymnal™
%%score ( 1 2 ) 3
L:1/8
Q:1/4=90
M:6/8
K:Bb
V:1 treble 
V:2 treble 
V:3 bass 
V:1
"^Adagio" [DF]2 [DB] [Ge]2 [Fd] | [Fd]2 [Ec] [DB]3 | [FA]2 [GB] [Ac]2 [FA] | [=EG]2 [EA] F3 | %4
w: 1.~Have you heard the|news pro- claimed,|How the wand- erers|are re- claimed,|
w: 2.~Have you heard the|tid- ings go,|In- to homes of|want and woe,|
w: 3.~In the sick- ward|by the cot,|When the throb- bing|brow is hot,|
w: 4.~Have you in the|pri- son cell,|Heard those sweet- est|notes which tell|
w: 5.~Let your voic- es|thus pro- claim,|In the haunts of|sin and shame,|
 [DF]2 [FB] [Ge]2 [Fd] | [Fd]2 [Ec] [DB]3 | [FA]2 [EG] [DF]2 [Fd] | [Ec]3 [DB]2 ||"^Refrain" [DB] | %9
w: And the blind, and|halt, and maimed,|Have a friend in|Je- sus?||
w: There to let poor|sin- ners know|What a friend in|Je- sus?||
w: Crea- ture helps a-|vail- ing not,|Oh, how sweet is|Je- sus!|A|
w: For con- demned ones,|all is well,|When they trust in|Je- sus?||
w: Free for- give- ness|in His name,|Pre- cious name of|Je- sus.||
 [Fd]2 [DB] [Fd]2 [DB] |!<(! ([DB][Ec])[Fd]!<)! !fermata![Ge]2 [Ge] | %11
w: ||
w: ||
w: friend in need, a|friend * in- deed, Have|
w: ||
w: ||
!>(! [Fd]2 [DB]!>)! [DF]2 [Fd] | !fermata![Ec]3 !fermata![DB]3 |] %13
w: ||
w: ||
w: you this friend in|Je- sus?|
w: ||
w: ||
V:2
 x6 | x6 | x6 | x3 F3 | x6 | x6 | x6 | x5 || x | x6 | x6 | x6 | x6 |] %13
V:3
 [B,,B,]2 [B,,B,] [B,,B,]2 [B,,B,] | [F,A,]2 [F,A,] [B,,B,]3 | [F,C]2 [F,C] [F,C]2 [F,C] | %3
 [C,B,]2 [C,B,] [F,A,]3 | [B,,B,]2 [B,,B,] [B,,B,]2 [B,,B,] | [F,A,]2 [F,A,] [B,,B,]3 | %6
 [E,B,]2 [E,B,] [F,B,]2 [F,B,] | [F,A,]3 [B,,B,]2 || [B,,B,] | [B,,B,]2 [B,,B,] [B,,B,]2 [B,,B,] | %10
 [B,,B,]2 [B,,B,] !fermata![E,B,]2 [E,B,] | [F,B,]2 [F,D] [F,D]2 [F,B,] | %12
 !fermata![F,A,]3 !fermata![B,,F,]3 |] %13

